src/ui/image-fill.svg

<?xml version="1.0" encoding="UTF-8"?><svg xmlns="http://www.w3.org/2000/svg" width="32" height="32" viewBox="0 0 32 32"><defs><style>.uuid-af0a04b1-ae16-4c14-900c-60ac16406478{fill:none;}.uuid-99579a36-ecf6-43ef-b1e5-a7e3390e39f9{fill:#151515;}</style></defs><g id="uuid-6e4951fc-be0d-4e73-a25e-9ce68628adc2"><rect class="uuid-af0a04b1-ae16-4c14-900c-60ac16406478" width="32" height="32"/></g><g id="uuid-63cd27f3-06d6-45b0-8759-0c40168f5ad6"><path class="uuid-99579a36-ecf6-43ef-b1e5-a7e3390e39f9" d="M29.5,3H2.5c-.82715,0-1.5.67285-1.5,1.5v23c0,.82715.67285,1.5,1.5,1.5h27c.82715,0,1.5-.67285,1.5-1.5V4.5c0-.82715-.67285-1.5-1.5-1.5ZM21,7c1.6543,0,3,1.3457,3,3s-1.3457,3-3,3-3-1.3457-3-3,1.3457-3,3-3ZM28,24.75c0,.68945-.56055,1.25-1.25,1.25H5.25c-.68945,0-1.25-.56055-1.25-1.25v-6.75c0-.26562.10547-.51953.29297-.70703l4.82324-4.82324c.47266-.47266,1.29492-.47266,1.76758,0l7.11621,7.11621,3.11621-3.11621c.47266-.47266,1.29492-.47266,1.76758,0l4.82324,4.82324c.1875.1875.29297.44141.29297.70703v2.75Z"/></g></svg>

<svg xmlns="http://www.w3.org/2000/svg" viewBox="0 0 32 32">
  <path d="M29.5 3h-27C1.673 3 1 3.673 1 4.5v23c0 .827.673 1.5 1.5 1.5h27c.827 0 1.5-.673 1.5-1.5v-23c0-.827-.673-1.5-1.5-1.5ZM21 7c1.654 0 3 1.346 3 3s-1.346 3-3 3-3-1.346-3-3 1.346-3 3-3Zm7 17.75c0 .689-.561 1.25-1.25 1.25H5.25C4.561 26 4 25.439 4 24.75V18c0-.266.105-.52.293-.707l4.823-4.823a1.279 1.279 0 0 1 1.768 0L18 19.586l3.116-3.116a1.279 1.279 0 0 1 1.768 0l4.823 4.823A.997.997 0 0 1 28 22v2.75Z"/>
</svg>
